static/images/icons/site_map.svg

<svg fill="none" height="81" viewBox="0 0 78 81" width="78" xmlns="http://www.w3.org/2000/svg"><path d="m75.8021 61.7647h-8.2748v-4.146c0-.7455-.6095-1.3523-1.358-1.3523h-6.6019v-4.8322h10.5571c.7486 0 1.358-.607 1.358-1.3523v-15.7566c0-.7455-.6095-1.3525-1.358-1.3525h-11.5541v-4.1461c0-.7456-.6096-1.3525-1.3581-1.3525h-16.797l-.0444-4.8323h14.4464c.7487 0 1.3581-.6069 1.3581-1.3522v-19.18036c0-.74551-.6096-1.35226-1.3581-1.35226h-31.6346c-.7487 0-1.3581.60694-1.3581 1.35226v19.18036c0 .7455.6095 1.3522 1.3581 1.3522h14.4715l.0445 4.8323h-16.9143c-.7487 0-1.3581.6069-1.3581 1.3525v4.1461h-11.55408c-.7487 0-1.35804.607-1.35804 1.3525v15.7566c0 .7455.60953 1.3523 1.35804 1.3523h9.72218v4.8322h-5.767c-.7487 0-1.3581.607-1.3581 1.3523v4.1462h-8.27141c-.7487 0-1.358046.6069-1.358046 1.3524v16.3735c0 .7455.609536 1.3522 1.358046 1.3522h19.26231c.7487 0 1.358-.6069 1.358-1.3522v-16.3735c0-.7455-.6095-1.3524-1.358-1.3524h-8.2748v-2.7937h24.4564v2.7937h-8.2748c-.7487 0-1.3582.6069-1.3582 1.3524v16.3735c0 .7455.6095 1.3522 1.3582 1.3522h19.2625c.7487 0 1.358-.6069 1.358-1.3522v-16.3735c0-.7455-.6095-1.3524-1.358-1.3524h-8.2715v-2.7937h24.4531v2.7937h-8.2715c-.7487 0-1.358.6069-1.358 1.3524v16.3735c0 .7455.6095 1.3522 1.358 1.3522h19.2623c.7487 0 1.3581-.6069 1.3581-1.3522v-16.3735c.0003-.7456-.6092-1.3526-1.3579-1.3526zm-51.2612-58.30291h28.9184v16.47561h-14.4593-.0132-14.4459zm-4.4388 74.67631h-16.54617v-13.6687h16.54597v13.6687zm27.1693 0h-16.546v-13.6687h16.546zm21.4948-29.4086h-23.108v-13.0519h23.1082v13.0519zm-59.53575-13.0519h23.10825v13.0519h-23.10825zm11.08025 15.7566h13.3858c.7487 0 1.3582-.607 1.3582-1.3523v-15.7566c0-.7455-.6095-1.3525-1.3582-1.3525h-11.5541v-2.7937h16.927.0132 16.7713v2.7937h-11.5541c-.7487 0-1.3582.607-1.3582 1.3525v15.7566c0 .7455.6095 1.3523 1.3582 1.3523h12.5512v4.8322h-36.5403zm54.1334 26.7039h-16.5461v-13.6687h16.5461z" fill="currentColor"/></svg>

<svg width="78" height="81" viewBox="0 0 78 81" fill="none" xmlns="http://www.w3.org/2000/svg">
<path d="M75.8021 61.7647H67.5273V57.6187C67.5273 56.8732 66.9178 56.2664 66.1693 56.2664H59.5674V51.4342H70.1245C70.8731 51.4342 71.4825 50.8272 71.4825 50.0819V34.3253C71.4825 33.5798 70.873 32.9728 70.1245 32.9728H58.5704V28.8267C58.5704 28.0811 57.9608 27.4742 57.2123 27.4742H40.4153L40.3709 22.6419H54.8173C55.566 22.6419 56.1754 22.035 56.1754 21.2897V2.10934C56.1754 1.36383 55.5658 0.75708 54.8173 0.75708H23.1827C22.434 0.75708 21.8246 1.36402 21.8246 2.10934V21.2897C21.8246 22.0352 22.4341 22.6419 23.1827 22.6419H37.6542L37.6987 27.4742H20.7844C20.0357 27.4742 19.4263 28.0811 19.4263 28.8267V32.9728H7.87222C7.12352 32.9728 6.51418 33.5798 6.51418 34.3253V50.0819C6.51418 50.8274 7.12371 51.4342 7.87222 51.4342H17.5944V56.2664H11.8274C11.0787 56.2664 10.4693 56.8734 10.4693 57.6187V61.7649H2.19789C1.44919 61.7649 0.839844 62.3718 0.839844 63.1173V79.4908C0.839844 80.2363 1.44938 80.843 2.19789 80.843H21.4602C22.2089 80.843 22.8182 80.2361 22.8182 79.4908V63.1173C22.8182 62.3718 22.2087 61.7649 21.4602 61.7649H13.1854V58.9712H37.6418V61.7649H29.367C28.6183 61.7649 28.0088 62.3718 28.0088 63.1173V79.4908C28.0088 80.2363 28.6183 80.843 29.367 80.843H48.6295C49.3782 80.843 49.9875 80.2361 49.9875 79.4908V63.1173C49.9875 62.3718 49.378 61.7649 48.6295 61.7649H40.358V58.9712H64.8111V61.7649H56.5396C55.7909 61.7649 55.1816 62.3718 55.1816 63.1173V79.4908C55.1816 80.2363 55.7911 80.843 56.5396 80.843H75.8019C76.5506 80.843 77.16 80.2361 77.16 79.4908V63.1173C77.1603 62.3717 76.5508 61.7647 75.8021 61.7647ZM24.5409 3.46179H53.4593V19.9374H39H38.9868H24.5409V3.46179ZM20.1021 78.1381H3.55593V64.4694H20.1019V78.1381H20.1021ZM47.2714 78.1381H30.7254V64.4694H47.2714V78.1381ZM68.7662 48.7295H45.6582V35.6776H68.7664V48.7295H68.7662ZM9.23045 35.6776H32.3387V48.7295H9.23045V35.6776ZM20.3107 51.4342H33.6965C34.4452 51.4342 35.0547 50.8272 35.0547 50.0819V34.3253C35.0547 33.5798 34.4452 32.9728 33.6965 32.9728H22.1424V30.1791H39.0694H39.0826H55.8539V32.9728H44.2998C43.5511 32.9728 42.9416 33.5798 42.9416 34.3253V50.0819C42.9416 50.8274 43.5511 51.4342 44.2998 51.4342H56.851V56.2664H20.3107V51.4342ZM74.4441 78.1381H57.898V64.4694H74.4441V78.1381Z" fill="currentColor"/>
</svg>
